X: 108
M:6/8
L:1/8
Q:160
K:G
|: G|A2 F D2 d|B2 G G2 B|A2 F D2 G|F>EF G2 G|A2 F D2 d |B2 G G2 B|A2 F D2 G |F>EF G2:|

